docs/public/static/branding/companies/spotify-dark.svg

<svg width="101" height="31" viewBox="0 0 101 31" fill="none" xmlns="http://www.w3.org/2000/svg">
<path d="M15.4577 0.575684C7.17564 0.575684 0.461426 7.28972 0.461426 15.5717C0.461426 23.8541 7.17564 30.5676 15.4577 30.5676C23.7406 30.5676 30.4541 23.8541 30.4541 15.5717C30.4541 7.29026 23.7406 0.5764 15.4575 0.5764L15.4577 0.575684ZM22.3348 22.2043C22.2708 22.3092 22.1868 22.4004 22.0875 22.4727C21.9882 22.545 21.8756 22.5971 21.7562 22.6259C21.6368 22.6546 21.5128 22.6596 21.3915 22.6404C21.2702 22.6212 21.1538 22.5783 21.0491 22.5141C17.5281 20.3634 13.0957 19.8763 7.87564 21.069C7.63393 21.1239 7.38029 21.0807 7.17046 20.9487C6.96062 20.8167 6.81177 20.6069 6.75661 20.3652C6.72914 20.2455 6.72554 20.1216 6.74602 20.0006C6.76649 19.8795 6.81065 19.7637 6.87596 19.6597C6.94126 19.5558 7.02643 19.4657 7.12659 19.3947C7.22675 19.3237 7.33993 19.2732 7.45966 19.246C13.1721 17.9409 18.0721 18.5028 22.025 20.9185C22.4656 21.1889 22.6052 21.7638 22.3348 22.2043V22.2043ZM24.1703 18.121C23.8319 18.6712 23.112 18.8449 22.5623 18.5064C18.5313 16.0287 12.3867 15.3112 7.61885 16.7585C7.00051 16.9452 6.34742 16.5968 6.15975 15.9795C6.0702 15.6827 6.102 15.3626 6.24816 15.0892C6.39432 14.8158 6.64292 14.6116 6.93944 14.5213C12.3856 12.8688 19.1563 13.6692 23.7853 16.5138C24.3351 16.8523 24.5088 17.5722 24.1703 18.1212V18.121ZM24.3279 13.8691C19.4947 10.9984 11.5205 10.7344 6.90596 12.1349C6.16495 12.3597 5.38132 11.9414 5.15676 11.2003C5.04878 10.8443 5.08661 10.46 5.26194 10.1319C5.43727 9.80377 5.73573 9.55872 6.09171 9.45061C11.3889 7.84252 20.1949 8.15322 25.7594 11.4566C25.918 11.5504 26.0566 11.6746 26.1671 11.822C26.2776 11.9695 26.358 12.1373 26.4035 12.3158C26.4491 12.4943 26.459 12.6801 26.4327 12.8625C26.4064 13.0449 26.3443 13.2203 26.2501 13.3786C25.8562 14.0451 24.993 14.2648 24.3286 13.8691H24.3279ZM41.2612 14.4192C38.6718 13.8018 38.2116 13.3684 38.2116 12.4578C38.2116 11.5975 39.021 11.0186 40.2262 11.0186C41.3937 11.0186 42.5505 11.4582 43.7647 12.3633C43.8005 12.3907 43.847 12.4016 43.8918 12.3944C43.9143 12.3912 43.936 12.3834 43.9554 12.3715C43.9748 12.3596 43.9915 12.3439 44.0046 12.3253L45.2689 10.5431C45.2939 10.5078 45.3044 10.4643 45.2984 10.4214C45.2924 10.3786 45.2704 10.3396 45.2367 10.3125C43.7915 9.15335 42.1655 8.5898 40.2638 8.5898C37.4684 8.5898 35.5147 10.2675 35.5147 12.668C35.5147 15.2422 37.1998 16.1537 40.1116 16.8573C42.5882 17.428 43.0072 17.9061 43.0072 18.7607C43.0072 19.708 42.162 20.2971 40.801 20.2971C39.2896 20.2971 38.0558 19.7868 36.6769 18.5942C36.6425 18.5651 36.5983 18.5503 36.5533 18.553C36.5068 18.5565 36.4656 18.578 36.4369 18.6121L35.0187 20.2989C34.9596 20.3706 34.9667 20.4744 35.0348 20.5353C36.6393 21.9679 38.6127 22.7236 40.7437 22.7236C43.7557 22.7236 45.7023 21.0779 45.7023 18.5297C45.7076 16.3795 44.4201 15.1887 41.2666 14.4215L41.2612 14.4192ZM52.5178 11.8656C51.2124 11.8656 50.1415 12.3799 49.2569 13.4338V12.2476C49.2571 12.2027 49.2395 12.1596 49.2079 12.1278C49.1763 12.0959 49.1334 12.0779 49.0886 12.0776H46.7695C46.6764 12.0776 46.6012 12.1539 46.6012 12.2476V25.4276C46.6012 25.5208 46.6764 25.5978 46.7695 25.5978H49.0886C49.1817 25.5978 49.2569 25.5208 49.2569 25.4276V21.2677C50.1415 22.258 51.2124 22.7433 52.5178 22.7433C54.9443 22.7433 57.4012 20.8756 57.4012 17.305C57.4048 13.7337 54.9479 11.8654 52.5196 11.8654L52.5178 11.8656ZM54.7043 17.305C54.7043 19.1224 53.5851 20.3921 51.9806 20.3921C50.3958 20.3921 49.1996 19.0651 49.1996 17.305C49.1996 15.5447 50.3958 14.2181 51.9806 14.2181C53.5582 14.2179 54.7043 15.5159 54.7043 17.3048V17.305ZM63.6957 11.8656C60.5708 11.8656 58.1229 14.2717 58.1229 17.3439C58.1229 20.3831 60.5547 22.763 63.6581 22.763C66.7936 22.763 69.2488 20.3652 69.2488 17.305C69.2488 14.2552 66.8098 11.866 63.6957 11.866V11.8656ZM63.6957 20.41C62.0338 20.41 60.7803 19.0741 60.7803 17.3041C60.7803 15.5261 61.9909 14.2358 63.6581 14.2358C65.3306 14.2358 66.5913 15.5712 66.5913 17.343C66.5913 19.1206 65.3736 20.41 63.6957 20.41ZM75.9211 12.0776H73.3693V9.46924C73.3693 9.44704 73.3651 9.42504 73.3567 9.40449C73.3483 9.38394 73.3359 9.36526 73.3202 9.34949C73.3046 9.33373 73.286 9.3212 73.2656 9.31261C73.2451 9.30403 73.2231 9.29957 73.2009 9.29947H70.8819C70.7888 9.29947 70.7118 9.37576 70.7118 9.46924V12.0776H69.5979C69.5048 12.0776 69.4296 12.1539 69.4296 12.2476V14.2401C69.4296 14.3336 69.5048 14.4101 69.5979 14.4101H70.7118V19.5665C70.7118 21.6492 71.7486 22.7057 73.7955 22.7057C74.6264 22.7057 75.3158 22.5338 75.9658 22.1649C76.0196 22.1362 76.0518 22.0789 76.0518 22.0181V20.1199C76.0518 20.0626 76.0213 20.007 75.9712 19.9766C75.9468 19.961 75.9187 19.9521 75.8898 19.9509C75.8609 19.9496 75.8321 19.956 75.8065 19.9694C75.3606 20.1933 74.929 20.2971 74.4455 20.2971C73.7023 20.2971 73.3693 19.9587 73.3693 19.203V14.411H75.9211C76.0142 14.411 76.0894 14.3347 76.0894 14.241V12.2486C76.0901 12.2264 76.0864 12.2043 76.0783 12.1835C76.0703 12.1628 76.0581 12.1439 76.0425 12.128C76.0269 12.1121 76.0083 12.0996 75.9877 12.0911C75.9672 12.0826 75.9451 12.0784 75.9229 12.0787L75.9211 12.0776ZM84.8103 12.0878V11.7675C84.8103 10.825 85.172 10.4047 85.9815 10.4047C86.465 10.4047 86.8536 10.5007 87.2887 10.6458C87.3424 10.6626 87.3979 10.6542 87.4409 10.6221C87.4627 10.6064 87.4805 10.5857 87.4926 10.5617C87.5048 10.5377 87.511 10.5111 87.5108 10.4842V8.53053C87.5112 8.49404 87.4997 8.45841 87.478 8.42903C87.4564 8.39966 87.4258 8.37814 87.3908 8.36775C86.9324 8.23112 86.345 8.0909 85.4639 8.0909C83.324 8.0909 82.1905 9.29679 82.1905 11.5769V12.0676H81.0766C80.9835 12.0676 80.9065 12.1439 80.9065 12.2374V14.2401C80.9065 14.3336 80.9835 14.4101 81.0766 14.4101H82.1905V22.3619C82.1905 22.4568 82.2675 22.532 82.3606 22.532H84.6778C84.7727 22.532 84.8479 22.4568 84.8479 22.3619V14.4106H87.0129L90.3294 22.3619C89.9533 23.1964 89.5827 23.3629 89.0777 23.3629C88.6694 23.3629 88.2378 23.2411 87.7991 22.9994C87.7575 22.9784 87.7095 22.9739 87.6648 22.9868C87.62 23.003 87.5824 23.0352 87.5645 23.0782L86.7783 24.8027C86.7407 24.885 86.773 24.9799 86.8518 25.0229C87.6719 25.467 88.4115 25.6568 89.3266 25.6568C91.0385 25.6568 91.9858 24.8582 92.8185 22.7129L96.8405 12.3199C96.851 12.2942 96.8548 12.2663 96.8517 12.2388C96.8486 12.2112 96.8386 12.1849 96.8226 12.1622C96.8075 12.1394 96.787 12.1208 96.763 12.1079C96.7389 12.0951 96.712 12.0884 96.6847 12.0884H94.2708C94.1974 12.0884 94.1329 12.1344 94.1097 12.2023L91.6366 19.2639L88.929 12.1976C88.9169 12.1656 88.8954 12.138 88.8672 12.1185C88.8391 12.099 88.8057 12.0885 88.7714 12.0884H84.8103V12.0878ZM79.6566 12.0776H77.3375C77.2444 12.0776 77.1674 12.1539 77.1674 12.2476V22.3619C77.1674 22.4568 77.2444 22.532 77.3375 22.532H79.6566C79.7497 22.532 79.8267 22.4568 79.8267 22.3619V12.2483C79.8267 12.2259 79.8224 12.2038 79.8138 12.1832C79.8053 12.1625 79.7928 12.1437 79.7769 12.128C79.7611 12.1122 79.7424 12.0997 79.7217 12.0911C79.701 12.0826 79.6789 12.0783 79.6566 12.0784V12.0776ZM78.5105 7.47202C77.5918 7.47202 76.8469 8.21554 76.8469 9.13401C76.8469 9.35247 76.8899 9.56879 76.9735 9.77061C77.0571 9.97244 77.1797 10.1558 77.3341 10.3103C77.4886 10.4648 77.672 10.5873 77.8739 10.6709C78.0757 10.7544 78.292 10.7975 78.5105 10.7974C79.4291 10.7974 80.1723 10.053 80.1723 9.13401C80.1723 8.21571 79.4273 7.47202 78.5105 7.47202ZM98.8211 15.3298C97.9042 15.3298 97.1897 14.5929 97.1897 13.6981C97.1897 12.8032 97.9132 12.0579 98.8301 12.0579C99.7469 12.0579 100.461 12.7946 100.461 13.6888C100.461 14.5836 99.738 15.3298 98.8211 15.3298ZM98.8301 12.2202C97.9938 12.2202 97.3616 12.8845 97.3616 13.6981C97.3616 14.5113 97.9902 15.1667 98.8211 15.1667C99.6574 15.1667 100.29 14.5028 100.29 13.6888C100.29 12.8756 99.661 12.2202 98.8301 12.2202V12.2202ZM99.1918 13.8566L99.6538 14.5027H99.2634L98.848 13.9099H98.4916V14.5027H98.1657V12.79H98.9285C99.3279 12.79 99.5893 12.9936 99.5893 13.3363C99.5911 13.6171 99.4282 13.7887 99.1936 13.8566H99.1918ZM98.916 13.0839H98.4916V13.6256H98.916C99.1273 13.6256 99.2545 13.5219 99.2545 13.3544C99.2545 13.1782 99.1273 13.0839 98.916 13.0839V13.0839Z" fill="#1ED760"/>
</svg>

<svg width="101" height="31" fill="none" xmlns="http://www.w3.org/2000/svg">
  <path d="M15.458.576C7.176.576.46 7.29.46 15.572s6.715 14.996 14.997 14.996c8.283 0 14.996-6.714 14.996-14.996S23.741.576 15.457.576zm6.877 21.628a.933.933 0 01-1.286.31c-3.52-2.15-7.953-2.638-13.173-1.445a.935.935 0 01-.416-1.823c5.712-1.305 10.612-.743 14.565 1.673.44.27.58.845.31 1.285zm1.835-4.083a1.169 1.169 0 01-1.608.385c-4.03-2.477-10.175-3.195-14.943-1.747a1.17 1.17 0 01-1.46-.78 1.17 1.17 0 01.78-1.458c5.447-1.652 12.217-.852 16.846 1.993.55.338.724 1.058.385 1.607zm.158-4.252C19.495 11 11.52 10.734 6.906 12.135a1.402 1.402 0 11-.814-2.684c5.297-1.608 14.103-1.298 19.667 2.006a1.4 1.4 0 01.491 1.922 1.402 1.402 0 01-1.921.49h-.001zm16.933.55c-2.59-.617-3.05-1.05-3.05-1.961 0-.86.81-1.44 2.015-1.44 1.168 0 2.325.44 3.539 1.345a.166.166 0 00.127.031.167.167 0 00.113-.069l1.264-1.782a.17.17 0 00-.032-.23c-1.446-1.16-3.072-1.723-4.973-1.723-2.796 0-4.75 1.678-4.75 4.078 0 2.574 1.686 3.486 4.598 4.19 2.476.57 2.895 1.048 2.895 1.903 0 .947-.845 1.536-2.206 1.536-1.511 0-2.745-.51-4.124-1.703a.175.175 0 00-.124-.041.167.167 0 00-.116.06l-1.418 1.686a.17.17 0 00.016.236c1.604 1.433 3.578 2.189 5.709 2.189 3.012 0 4.958-1.646 4.958-4.194.006-2.15-1.282-3.341-4.435-4.109l-.006-.002zm11.257-2.553c-1.306 0-2.377.514-3.261 1.568v-1.186a.169.169 0 00-.168-.17h-2.32a.17.17 0 00-.168.17v13.18c0 .093.075.17.169.17h2.319a.17.17 0 00.168-.17v-4.16c.885.99 1.955 1.475 3.26 1.475 2.427 0 4.884-1.867 4.884-5.438.004-3.571-2.453-5.44-4.881-5.44h-.002zm2.186 5.439c0 1.817-1.119 3.087-2.723 3.087-1.585 0-2.781-1.327-2.781-3.087 0-1.76 1.196-3.087 2.78-3.087 1.578 0 2.724 1.298 2.724 3.087zm8.992-5.44c-3.125 0-5.573 2.407-5.573 5.479 0 3.04 2.432 5.419 5.535 5.419 3.136 0 5.59-2.398 5.59-5.458 0-3.05-2.438-5.439-5.552-5.439zm0 8.545c-1.662 0-2.916-1.336-2.916-3.106 0-1.778 1.21-3.068 2.878-3.068 1.673 0 2.933 1.335 2.933 3.107 0 1.778-1.217 3.067-2.895 3.067zm12.225-8.332H73.37V9.469a.171.171 0 00-.103-.156.17.17 0 00-.065-.014h-2.32a.17.17 0 00-.17.17v2.609h-1.113a.17.17 0 00-.168.17v1.992c0 .094.075.17.168.17h1.114v5.157c0 2.082 1.037 3.139 3.084 3.139.83 0 1.52-.172 2.17-.541a.166.166 0 00.086-.147V20.12a.17.17 0 00-.246-.15 2.927 2.927 0 01-1.36.327c-.744 0-1.077-.338-1.077-1.094v-4.792h2.552a.17.17 0 00.168-.17v-1.992a.165.165 0 00-.166-.17l-.002-.001zm8.89.01v-.32c0-.943.361-1.363 1.17-1.363.484 0 .873.096 1.308.24a.168.168 0 00.204-.083.168.168 0 00.018-.078V8.531a.168.168 0 00-.12-.163 6.352 6.352 0 00-1.927-.277c-2.14 0-3.273 1.206-3.273 3.486v.49h-1.114a.17.17 0 00-.17.17v2.003c0 .094.077.17.17.17h1.114v7.952c0 .095.076.17.17.17h2.317c.095 0 .17-.075.17-.17V14.41h2.165l3.316 7.95c-.376.835-.746 1.002-1.251 1.002-.409 0-.84-.122-1.279-.364a.185.185 0 00-.134-.012.169.169 0 00-.1.091l-.787 1.725a.17.17 0 00.074.22c.82.444 1.56.634 2.475.634 1.712 0 2.659-.799 3.492-2.944L96.84 12.32a.165.165 0 00-.018-.158.165.165 0 00-.138-.074H94.27a.17.17 0 00-.161.114l-2.473 7.062-2.708-7.066a.169.169 0 00-.158-.11h-3.96zm-5.154-.01h-2.32a.17.17 0 00-.17.17v10.114c0 .095.077.17.17.17h2.32a.17.17 0 00.17-.17V12.248a.169.169 0 00-.17-.17zM78.51 7.472a1.662 1.662 0 10-.002 3.325 1.662 1.662 0 00.002-3.325zm20.311 7.858a1.625 1.625 0 01-1.631-1.632c0-.895.723-1.64 1.64-1.64.917 0 1.631.737 1.631 1.63a1.64 1.64 0 01-1.64 1.642zm.01-3.11c-.837 0-1.47.664-1.47 1.478 0 .813.63 1.469 1.46 1.469.836 0 1.469-.664 1.469-1.478 0-.813-.629-1.469-1.46-1.469zm.36 1.637l.463.646h-.39l-.416-.593h-.356v.593h-.326V12.79h.763c.399 0 .66.204.66.546.002.281-.16.453-.395.52h-.002zm-.275-.773h-.424v.542h.424c.211 0 .338-.104.338-.272 0-.176-.127-.27-.338-.27z" fill="#1ED760"/>
</svg>
